icon_installer/data/icons/scalable/actions/show-compass-alt-symbolic.svg

<?xml version="1.0" encoding="UTF-8"?>
<svg height="16px" viewBox="0 0 16 16" width="16px" xmlns="http://www.w3.org/2000/svg">
    <g fill="#222222">
        <path d="m 8 0 l -2 6 l -6 2 l 6 2 l 2 6 l 2 -6 l 6 -2 l -6 -2 z m 0 6 c 1.105469 0 2 0.894531 2 2 s -0.894531 2 -2 2 s -2 -0.894531 -2 -2 s 0.894531 -2 2 -2 z m 0 0"/>
        <path d="m 2.5 2.5 l 1.5 3.5 l 1.5 -0.5 l 0.5 -1.5 z m 11 0 l -3.5 1.5 l 0.5 1.5 l 1.5 0.5 z m -9.5 7.5 l -1.5 3.5 l 3.5 -1.5 l -0.5 -1.5 z m 8 0 l -1.5 0.5 l -0.5 1.5 l 3.5 1.5 z m 0 0" fill-opacity="0.34902"/>
        <path d="m 9 8 c 0 0.550781 -0.449219 1 -1 1 s -1 -0.449219 -1 -1 s 0.449219 -1 1 -1 s 1 0.449219 1 1 z m 0 0"/>
    </g>
</svg>

<svg xmlns="http://www.w3.org/2000/svg" width="16" height="16"><g fill="#222"><path d="M8 0 6 6 0 8l6 2 2 6 2-6 6-2-6-2zm0 6a2 2 0 1 1-2 2 2 2 0 0 1 2-2zm0 0"/><path fill-opacity=".349" d="M2.5 2.5 4 6l1.5-.5L6 4zm11 0L10 4l.5 1.5L12 6zM4 10l-1.5 3.5L6 12l-.5-1.5zm8 0-1.5.5L10 12l3.5 1.5zm0 0"/><path d="M9 8c0 .55-.45 1-1 1s-1-.45-1-1 .45-1 1-1 1 .45 1 1zm0 0"/></g></svg>
